X:7
%%etbk:tnset id:3,pos:2,rep:3x,ant:
%%etbk:wsite http://www.thesession.org/tunes/display/541
%%etbk:color #ffe6e6
%%etbk:pldat 2016-07-09T13:41,2016-03-30T18:05,2016-03-14T18:08,2015-10-13T18:00,2015-07-17T10:30,2015-03-06T17:03,2015-03-04T17:47,2015-01-20T16:05,2014-12-30T17:25,2014-12-20T14:10,2014-12-14T15:07,2014-12-13T15:55,2014-12-09T17:03,2014-12-08T18:22,2014-12-07T10:42,2014-09-25T17:43,2014-05-14T15:48,2014-05-11T12:36,2014-05-07T17:55,2014-03-12T18:27,2014-02-15T17:19,2014-02-04T17:55,2013-11-27T18:46,2013-11-18T17:57,2013-11-06T16:27,2013-10-05T14:57,2013-09-01T15:23,2013-08-28T15:31,2013-05-02T18:48,2013-05-01T16:57
T: Paddy Canny's Toast
Z: Piano Box Version by Martin Fleischmann
H: Created 2013-02-19 /  Last Modified 2014-12-07
M: 4/4
L: 1/8
R: Reel
K: Gdor
|:"gm"!1!G2 !4!cG !5!dGcG| "F"!2!FF !4!AF CFAF| "gm"!1!G2 cG dGcG| "dm"!4!e!5!f!2!c!1!A !3!d!1!A!2!c!1!A|
"gm"!1!G2 cG dGcG| "F"FF AF CFCF| "gm"!1!D2!2!FD !3!G!4!A!3!B!5!d| "dm"!4!c!2!A!5!fA !4!(3cdc !2!AB:||
|:"gm"!1!G2 !4!g!5!a !4!g!1!d!3!B!2!A|!1!G2 !4!g!2!e fgeg| "B"!3!f!1!B!2!B{d}B !1!F!2!B!1!D!2!B|!5!f2!2!BB !5!f!4!d!3!c!2!A|
"gm"!1!G2 ga gdBA|G2 !4!g!5!a !3!b!1!g!2!a!1!g| "dm"!3!fffg !5!afge|!3!f!1!d!4!c!2!A !3!B!1!G!2!A!1!F:||


